svg_80x80/logback.svg

<svg viewBox="0 0 80 80" xmlns="http://www.w3.org/2000/svg">
<rect width="100%" height="100%" fill="#069C02"/>
<path fill-rule="evenodd" clip-rule="evenodd" d="M21.7146 20.5298C21.7099 20.472 21.7074 20.4138 21.7074 20.355C21.7074 16.7085 30.9044 15 39.4469 15C47.9634 15 57.1219 16.6896 57.1777 20.3216L57.1957 20.3208C57.1957 20.378 57.1992 20.5116 57.2046 20.7135L57.2047 20.7174C57.2154 21.1186 57.2333 21.7871 57.2449 22.6588C60.1892 22.8012 66.02 23.6549 66.8851 28.1069C67.5368 31.4417 67.0327 34.4278 65.496 36.8186C71.0238 39.6289 74 43.2519 74 47.1726C74 55.8936 59.0655 62.7191 40 62.7191C20.9345 62.7191 6 55.9191 6 47.1726C6 41.6591 11.9726 36.7405 22.0339 33.9255C21.4659 27.7039 21.6581 21.7788 21.7146 20.5298ZM23.7549 23.0196C26.9503 24.8373 33.3866 25.7015 39.4469 25.7015C45.5568 25.7015 51.9971 24.8362 55.1696 23.0061C55.2691 30.4508 54.61 44.113 50.6167 47.5208C50.5827 47.5548 46.9532 50.9888 39.9662 51.3458C39.6321 51.3628 39.2973 51.3628 38.9632 51.3458C32.0832 50.9947 28.4672 47.6674 28.2688 47.4848L28.2617 47.4783C24.3458 44.1101 23.6674 30.4668 23.7549 23.0196ZM62.8221 39.6499C63.3078 39.2894 63.7546 38.9009 64.1616 38.4864C69.1547 40.9561 71.9005 44.0177 71.9005 47.1726C71.9005 54.4571 57.289 60.6196 40 60.6196C22.711 60.6196 8.0995 54.4571 8.1335 47.1726C8.1335 42.784 13.4915 38.5748 22.2577 36.0467C22.7126 39.8173 23.4829 43.5146 24.7671 46.1689C21.6007 47.6769 19.8718 49.6541 19.8718 51.7965C19.8718 56.6585 28.5248 60.2965 39.9998 60.2965C51.4748 60.2965 60.1278 56.6585 60.1278 51.8305C60.1278 49.4705 58.0715 47.3444 54.3022 45.789C54.6713 44.9649 54.9953 44.053 55.2795 43.0789C58.0331 42.5721 60.6241 41.3961 62.8221 39.6499ZM53.2868 47.6447C52.9068 48.2056 52.491 48.688 52.0362 49.0763L52.0299 49.0822C51.9883 49.1212 51.8026 49.2954 51.4734 49.5535C51.3071 50.8683 50.7915 52.1188 49.9751 53.1723C49.0308 54.3907 47.7309 55.2852 46.2556 55.7319C44.2012 56.3292 42.0788 56.6606 39.9401 56.7179L39.4471 56.7094H38.9541C36.8071 56.6588 34.6757 56.3302 32.6131 55.7319C31.1511 55.288 29.8623 54.4028 28.9233 53.1975C28.0938 52.1328 27.5733 50.8644 27.4131 49.5309C27.0561 49.249 26.86 49.0601 26.8252 49.0253C26.4782 48.7294 26.1539 48.3777 25.851 47.9773C23.3756 49.115 21.9798 50.4872 21.9798 51.7965C21.9798 54.8055 29.3833 58.1545 39.9998 58.1545C50.6163 58.1545 58.0198 54.882 58.0198 51.8305C58.0198 50.3753 56.2698 48.8408 53.2868 47.6447ZM57.2481 25.7812C57.2521 25.4339 57.2544 25.0983 57.2555 24.7756C59.477 24.9081 64.2497 25.5387 64.8281 28.5064C65.6016 32.4929 64.4456 35.8419 61.5726 37.9584C59.8844 39.3065 57.9329 40.2753 55.851 40.8067C55.9575 40.3146 56.0562 39.8129 56.1476 39.3045C57.8087 38.8879 59.396 38.2133 60.851 37.3039C63.4436 35.7144 64.4381 33.1984 63.9026 29.6114C63.6906 28.2254 62.5324 25.9637 57.2481 25.7812ZM56.6663 35.7478C56.6168 36.1739 56.5634 36.5994 56.5057 37.023C57.1681 36.814 57.8145 36.5576 58.4399 36.2557C57.8521 36.0749 57.2608 35.9056 56.6663 35.7478ZM56.8813 33.6269C58.1776 33.9594 59.46 34.3443 60.7253 34.7805C61.8337 33.6689 62.1805 32.1273 61.8455 29.9259C61.6685 28.7251 59.9579 27.9704 57.2062 27.8765C57.1548 29.6566 57.0568 31.6223 56.8813 33.6269ZM40.0767 53.4453C43.8885 53.2466 46.7955 52.2318 48.7888 51.2299C48.6461 51.4943 48.4807 51.7474 48.2938 51.9862C47.6084 52.8621 46.6672 53.5028 45.6011 53.8194C43.7264 54.344 41.7929 54.6296 39.8466 54.6694H39.0476C37.0907 54.6196 35.1483 54.3196 33.2676 53.7769C32.22 53.4678 31.2932 52.8433 30.6133 51.9885C30.4209 51.7466 30.2509 51.4895 30.1046 51.2205C32.1041 52.2294 35.0155 53.2462 38.8357 53.4453H40.0767ZM23.813 20.4138C23.809 20.3937 23.807 20.3741 23.807 20.355C23.807 19.3775 29.1279 17.0995 39.4469 17.0995C49.7574 17.0995 55.0785 19.386 55.0785 20.355C55.0785 21.324 49.7659 23.602 39.4469 23.602C29.4554 23.602 24.1497 21.4743 23.823 20.4518L23.8247 20.4143L23.813 20.4138Z" fill="white"/>
</svg>

<svg xmlns="http://www.w3.org/2000/svg" viewBox="0 0 80 80">
  <rect width="100%" height="100%" fill="#069C02"/>
  <path fill="#fff" fill-rule="evenodd" d="M21.7 20.5v-.1c0-3.7 9.2-5.4 17.7-5.4 8.6 0 17.7 1.7 17.8 5.3v2.4c3 .1 8.8 1 9.7 5.4.6 3.3.1 6.3-1.4 8.7C71 39.6 74 43.3 74 47.2c0 8.7-15 15.5-34 15.5S6 56 6 47.2c0-5.5 6-10.5 16-13.3-.5-6.2-.3-12.1-.3-13.4Zm2 2.5a37 37 0 0 0 15.7 2.7c6.2 0 12.6-.9 15.8-2.7 0 7.5-.6 21.1-4.6 24.5A17.4 17.4 0 0 1 39 51.3a17.4 17.4 0 0 1-10.7-3.8c-4-3.4-4.6-17-4.5-24.5Zm39.1 16.6 1.4-1.1c5 2.5 7.7 5.5 7.7 8.7 0 7.3-14.6 13.4-31.9 13.4-17.3 0-31.9-6.1-31.9-13.4 0-4.4 5.4-8.6 14.2-11.2.4 3.8 1.2 7.5 2.5 10.2-3.2 1.5-5 3.5-5 5.6 0 4.9 8.7 8.5 20.2 8.5s20.1-3.6 20.1-8.5c0-2.3-2-4.5-5.8-6l1-2.7c2.7-.5 5.3-1.7 7.5-3.5Zm-9.5 8L52 49.1l-.5.5a7.4 7.4 0 0 1-5.2 6.1c-2.1.6-4.2 1-6.4 1H39c-2.2 0-4.3-.4-6.4-1a7.4 7.4 0 0 1-5.2-6.2l-.6-.5-1-1C23.5 49 22 50.5 22 51.8c0 3 7.4 6.4 18 6.4s18-3.3 18-6.4c0-1.4-1.7-3-4.7-4.2Zm4-21.8v-1c2.2.1 7 .7 7.5 3.7.8 4-.4 7.3-3.2 9.5a15.2 15.2 0 0 1-5.7 2.8l.2-1.5c1.7-.4 3.3-1 4.8-2 2.5-1.6 3.5-4.1 3-7.7-.2-1.4-1.4-3.6-6.7-3.8Zm-.6 10-.2 1.2 2-.7-1.8-.6Zm.2-2.2c1.3.4 2.6.7 3.8 1.2 1.1-1.1 1.5-2.7 1.1-4.9-.1-1.2-1.8-2-4.6-2l-.3 5.7ZM40 53.4c3.8-.2 6.7-1.2 8.7-2.2a5.3 5.3 0 0 1-3.2 2.6c-1.9.5-3.8.8-5.8.9H39c-2 0-3.9-.4-5.7-1a5.3 5.3 0 0 1-3.2-2.5c2 1 5 2 8.7 2.2h1.3Zm-16.3-33c0-1 5.3-3.3 15.6-3.3 10.4 0 15.7 2.3 15.7 3.3s-5.3 3.2-15.7 3.2c-10 0-15.3-2.1-15.6-3.1Z" clip-rule="evenodd"/>
</svg>
